src/assets/icons/app-members.svg

<svg width="16" height="16" viewBox="0 0 16 16" fill="none" xmlns="http://www.w3.org/2000/svg">
<g clip-path="url(#clip0_8874_15383)">
<path fill-rule="evenodd" clip-rule="evenodd" d="M4.09024 0.0170494C3.77396 0.0530978 3.36725 0.18868 3.09784 0.347908C1.68087 1.1853 1.36687 3.05695 2.43362 4.30716C2.70789 4.62862 3.0847 4.88939 3.50178 5.04637C4.05957 5.25633 4.74473 5.25666 5.301 5.04729C6.70342 4.51943 7.37774 2.95661 6.79691 1.58036C6.52757 0.942164 5.97617 0.414999 5.31348 0.16209C4.95182 0.0240787 4.4994 -0.0295615 4.09024 0.0170494ZM11.2852 0.0170494C9.99963 0.163543 8.99467 1.2928 8.99388 2.5918C8.9932 3.68974 9.6659 4.65836 10.6992 5.04729C11.2555 5.25666 11.9406 5.25633 12.4984 5.04637C13.526 4.65959 14.2014 3.69311 14.2014 2.60948C14.2014 1.91172 13.9321 1.25734 13.4441 0.769374C12.8713 0.196592 12.0922 -0.0749027 11.2852 0.0170494ZM4.16059 1.64098C4.00315 1.67916 3.86124 1.76077 3.72161 1.89341C3.50767 2.09662 3.41813 2.3049 3.41813 2.59933C3.41813 3.03811 3.67318 3.39859 4.08493 3.54179C4.22864 3.59177 4.48006 3.60309 4.63824 3.56673C4.96982 3.49047 5.27107 3.19345 5.35891 2.85617C5.395 2.71761 5.39498 2.48099 5.35888 2.34235C5.3158 2.17692 5.24479 2.06077 5.09303 1.90752C4.88592 1.69832 4.67916 1.61297 4.38791 1.61641C4.31502 1.61728 4.21274 1.62832 4.16059 1.64098ZM11.3556 1.64098C11.1841 1.68257 11.0536 1.76024 10.9072 1.9078C10.7555 2.06068 10.6844 2.17681 10.6413 2.34235C10.6052 2.48099 10.6052 2.71761 10.6413 2.85617C10.7278 3.18819 11.0142 3.47522 11.3491 3.56538C11.4934 3.60425 11.7684 3.59286 11.9147 3.54198C12.3229 3.40001 12.5821 3.03776 12.5821 2.60906C12.5821 2.31044 12.5027 2.12008 12.2897 1.90752C12.0798 1.69804 11.8732 1.61299 11.5829 1.61641C11.51 1.61728 11.4077 1.62832 11.3556 1.64098ZM4.07444 5.40719C2.87855 5.488 1.73031 6.09271 0.967812 7.04328C0.381983 7.77358 0.048659 8.65403 0.00274733 9.59234C-0.0153413 9.96193 0.0375996 10.154 0.207592 10.3358C0.377787 10.5177 0.562685 10.5993 0.805124 10.5993C1.04622 10.5993 1.25046 10.5075 1.40814 10.3284C1.55176 10.1652 1.61387 9.97444 1.61497 9.69309C1.61523 9.6273 1.62688 9.49895 1.64084 9.40786C1.735 8.79379 1.99781 8.26684 2.42335 7.83886C2.90823 7.35121 3.508 7.07603 4.20019 7.02366C4.66877 6.9882 4.78435 6.94971 4.96522 6.76884C5.12384 6.61022 5.19023 6.46063 5.19991 6.24005C5.20596 6.10204 5.2 6.04975 5.1668 5.94997C5.09844 5.74458 4.93272 5.55863 4.73891 5.46992C4.64503 5.42693 4.4358 5.38531 4.3382 5.39018C4.3129 5.39143 4.19421 5.39909 4.07444 5.40719ZM7.78848 5.40641C7.56214 5.42522 7.41458 5.45404 7.21067 5.51931C6.40128 5.77832 5.77799 6.40281 5.51764 7.21557C5.36164 7.70258 5.36164 8.29772 5.51764 8.78473C5.81722 9.71997 6.61588 10.4129 7.57414 10.569C7.78553 10.6035 8.17235 10.6075 8.37732 10.5775C9.26514 10.4474 10.042 9.85007 10.3892 9.03063C10.5393 8.67633 10.5994 8.37782 10.5985 7.99095C10.5969 7.35353 10.3822 6.77907 9.96231 6.28902C9.43688 5.67585 8.60602 5.33849 7.78848 5.40641ZM11.4713 5.40713C11.1828 5.44995 10.9275 5.66725 10.8334 5.94997C10.8002 6.04975 10.7942 6.10204 10.8003 6.24005C10.81 6.46063 10.8764 6.61022 11.035 6.76884C11.2158 6.94971 11.3314 6.9882 11.8 7.02366C12.8124 7.10025 13.6566 7.67472 14.1139 8.5982C14.2657 8.90475 14.3564 9.2723 14.385 9.69667C14.4049 9.99126 14.43 10.0955 14.5115 10.2225C14.6686 10.467 14.9086 10.5993 15.1951 10.5993C15.4375 10.5993 15.6224 10.5177 15.7926 10.3358C15.9773 10.1383 16.0224 9.94485 15.9895 9.49111C15.9134 8.4428 15.4906 7.49507 14.7557 6.72561C14.191 6.13439 13.3138 5.65231 12.5066 5.48973C12.1263 5.41313 11.674 5.37704 11.4713 5.40713ZM7.78511 7.03413C7.63519 7.06672 7.53568 7.11296 7.40473 7.21093C6.97153 7.535 6.88145 8.1582 7.20578 8.58736C7.48097 8.95149 7.94047 9.0831 8.37042 8.92092C8.58664 8.83937 8.83931 8.5867 8.92087 8.37048C9.04559 8.03983 8.99817 7.68328 8.79331 7.41121C8.55339 7.09259 8.17215 6.95 7.78511 7.03413ZM7.57686 10.8086C6.70388 10.913 5.99704 11.1927 5.31915 11.7018C5.10737 11.8608 4.72348 12.2356 4.5588 12.4441C3.93558 13.2332 3.58073 14.2443 3.60494 15.1619C3.61105 15.3932 3.61471 15.4137 3.67106 15.5327C3.82635 15.8608 4.17533 16.0456 4.53074 15.9879C4.7029 15.9599 4.83917 15.8893 4.96728 15.7617C5.14019 15.5895 5.19347 15.4521 5.21187 15.1307C5.23527 14.7218 5.29116 14.4584 5.42269 14.137C5.68307 13.5009 6.21149 12.9451 6.81425 12.6734C7.22269 12.4893 7.56895 12.4133 8.00009 12.4133C8.42771 12.4133 8.78285 12.4912 9.18594 12.6733C9.78792 12.9452 10.3182 13.5022 10.5756 14.1329C10.7085 14.4585 10.765 14.7237 10.7883 15.1307C10.8067 15.4523 10.8634 15.598 11.0351 15.7655C11.0922 15.8212 11.1842 15.8893 11.2394 15.9168C11.4523 16.0227 11.7399 16.0242 11.9519 15.9205C12.097 15.8495 12.257 15.6851 12.3292 15.5327L12.3888 15.4067L12.3881 15.0663C12.3872 14.6787 12.3587 14.4612 12.2579 14.0731C12.0628 13.3219 11.6748 12.6501 11.11 12.0852C10.4509 11.4262 9.66108 11.017 8.72695 10.8506C8.55175 10.8194 8.41681 10.8102 8.0737 10.8061C7.83586 10.8032 7.61228 10.8043 7.57686 10.8086Z" fill="currentColor"/>
</g>
<defs>
<clipPath id="clip0_8874_15383">
<rect width="16" height="16" fill="white"/>
</clipPath>
</defs>
</svg>

<svg xmlns="http://www.w3.org/2000/svg" width="16" height="16" fill="none">
  <g clip-path="url(#a)">
    <path fill="currentColor" fill-rule="evenodd" d="M4.09.017a2.795 2.795 0 0 0-.992.33 2.606 2.606 0 0 0 .404 4.7c.558.21 1.243.21 1.799 0A2.608 2.608 0 0 0 6.797 1.58 2.654 2.654 0 0 0 5.313.162 2.712 2.712 0 0 0 4.09.017Zm7.195 0C10 .164 8.995 1.293 8.994 2.592c0 1.098.672 2.066 1.705 2.455a2.65 2.65 0 0 0 1.8 0A2.606 2.606 0 0 0 14.2 2.608c0-.697-.269-1.352-.757-1.84a2.604 2.604 0 0 0-2.159-.752ZM4.161 1.641a.957.957 0 0 0-.44.252.89.89 0 0 0-.303.706c0 .44.255.8.667.943.144.05.395.061.553.025.332-.077.633-.374.72-.71a1.233 1.233 0 0 0 0-.515c-.042-.165-.113-.281-.265-.434a.891.891 0 0 0-.705-.292 1.22 1.22 0 0 0-.227.025Zm7.195 0a.891.891 0 0 0-.449.267c-.152.153-.223.269-.266.434a1.232 1.232 0 0 0 0 .514c.087.332.373.62.708.71.144.038.42.027.566-.024a.973.973 0 0 0 .667-.933.881.881 0 0 0-.292-.701.899.899 0 0 0-.707-.292 1.22 1.22 0 0 0-.227.025ZM4.074 5.407A4.412 4.412 0 0 0 .003 9.592c-.018.37.035.562.205.744.17.182.355.263.597.263a.774.774 0 0 0 .603-.27c.144-.164.206-.355.207-.636a2.77 2.77 0 0 1 .808-1.854A2.733 2.733 0 0 1 4.2 7.024c.469-.036.584-.074.765-.255A.722.722 0 0 0 5.2 6.24a.66.66 0 0 0-.033-.29.837.837 0 0 0-.428-.48 1.176 1.176 0 0 0-.4-.08l-.265.017Zm3.714 0a2.601 2.601 0 0 0-2.27 1.81 2.69 2.69 0 0 0 0 1.568 2.613 2.613 0 0 0 2.056 1.784c.212.034.598.038.803.008a2.615 2.615 0 0 0 2.012-1.546c.15-.355.21-.653.21-1.04a2.565 2.565 0 0 0-.637-1.702 2.615 2.615 0 0 0-2.174-.883Zm3.683 0a.815.815 0 0 0-.638.543.658.658 0 0 0-.033.29c.01.22.076.37.235.529.18.18.296.22.765.255 1.012.076 1.857.65 2.314 1.574.152.307.242.674.271 1.099.02.294.045.399.127.526a.786.786 0 0 0 .683.376.763.763 0 0 0 .598-.263c.184-.198.23-.391.197-.845a4.408 4.408 0 0 0-1.234-2.765 4.55 4.55 0 0 0-2.25-1.236c-.38-.077-.832-.113-1.035-.083ZM7.785 7.034a.884.884 0 0 0-.38.177.986.986 0 0 0-.2 1.376.995.995 0 0 0 1.165.334c.217-.082.47-.334.55-.55a.996.996 0 0 0-1.135-1.337Zm-.208 3.775c-.873.104-1.58.384-2.258.893a5.522 5.522 0 0 0-.76.742c-.623.79-.978 1.8-.954 2.718.006.231.01.252.066.37a.807.807 0 0 0 .86.456.762.762 0 0 0 .436-.226c.173-.173.226-.31.245-.631.023-.41.08-.673.21-.994.261-.636.79-1.192 1.392-1.464.409-.184.755-.26 1.186-.26.428 0 .783.078 1.186.26a2.817 2.817 0 0 1 1.39 1.46c.133.326.189.59.212.998.019.321.075.467.247.634.057.056.15.124.204.152a.85.85 0 0 0 .713.004.915.915 0 0 0 .377-.388l.06-.126v-.34a3.432 3.432 0 0 0-.131-.994 4.327 4.327 0 0 0-1.148-1.988 4.364 4.364 0 0 0-2.383-1.234c-.175-.032-.31-.04-.653-.045a9.08 9.08 0 0 0-.497.003Z" clip-rule="evenodd"/>
  </g>
  <defs>
    <clipPath id="a">
      <path fill="#fff" d="M0 0h16v16H0z"/>
    </clipPath>
  </defs>
</svg>
